!!!!SEGMENT: pl-kk--kk-i-355_anonim--surrexit-christus.krn
!!!cenid: 17xx:2046
!!!COM: Anonim
!!!COM-rismID: pe30004985
!!!CDT:
!!!CNT:
!!!OTL: Surrexit Christus
!!!PDT:
!!!AGN: Sacred
!!!SMS-siglum: PL-Kk
!!!SMS-shelfmark: Kk.I.355
!!!SMS-shelfwork: W
!!!SMS-variant:
!!!SMS-altvar:
!!!NIFC-rismSourceID: 1001134578
!!!NIFC-islandoraID: pl-kk:5924
!!!URL-pdf-islandora: https://repozytorium.nifc.pl/islandora/object/pl-kk%3A5924/datastream/PDF/view
!!!URL-scan: https://polish.musicsources.pl/pl/lokalizacje/galeria/rekopisy/5971 @EN{Scan on Polish Music Sources Website} @PL{Skany w portalu Dziedzictwo Muzyki Polskiej w otwartym dostępie}
!!!ONB-nifc:
!!!AIN: 1 alto 1 empty 1 tenor 1 vox
!!!key:
**kern	**text	**text	**kern	**text	**text	**kern	**text	**text	**kern	**text	**text
*part4	*part4	*part4	*part3	*part3	*part3	*part2	*part2	*part2	*part1	*part1	*part1
*staff4	*staff4	*staff4	*staff3	*staff3	*staff3	*staff2	*staff2	*staff2	*staff1	*staff1	*staff1
*group1	*	*	*group1	*	*	*group1	*	*	*group1	*	*
*Iempty	*	*	*Itenor	*	*	*Ialto	*	*	*Ivox	*	*
*I"Baſsus 2di chori	*	*	*I"Tenor 2di chori.	*	*	*I"Altus 2di chori.	*	*	*I"[Canto 2di chori]	*	*
*I'Coro 2 - B	*	*	*I'Coro 2 - T	*	*	*I'Coro 2 - A	*	*	*I'[Coro 2 - S]	*	*
*clefF4	*	*	*clefC4	*	*	*clefC3	*	*	*clefC1	*	*
*k[]	*	*	*k[]	*	*	*k[]	*	*	*k[]	*	*
*C:	*	*	*C:	*	*	*C:	*	*	*C:	*	*
=1-	=1-	=1-	=1-	=1-	=1-	=1-	=1-	=1-	=1-	=1-	=1-
!LO:TX:a:t=Surrexit \nTacet	!	!	!LO:TX:a:t=Surrexit \nTacet	!	!	!LO:TX:a:t=Surrexit \nTacet.	!	!	!LO:TX:a:t=Surrexit \nTacet	!	!
!LO:TX:a:t=Motetto à 6	!	!	!LO:TX:a:t=Capella à 4	!	!	!LO:TX:a:t=Capella à 4	!	!	!LO:TX:a:t=Capella à 4	!	!
0.ryy	.	.	0.ryy	.	.	0.ryy	.	.	0.ryy	.	.
=2-	=2-	=2-	=2-	=2-	=2-	=2-	=2-	=2-	=2-	=2-	=2-
*M3/1	*	*	*M3/1	*	*	*M3/1	*	*	*M3/1	*	*
*met(O)	*	*	*met(O)	*	*	*met(O)	*	*	*met(O)	*	*
!LO:TX:t=P:problem=dodatkowe oznaczenie 3/1	!	!	!LO:TX:t=P:problem=dodatkowe oznaczenie 3/1	!	!	!LO:TX:t=P:problem=dodatkowe oznaczenie 3/1	!	!	!LO:TX:t=P:problem=dodatkowe oznaczenie 3/1	!	!
1C	Sur-	Diſ-	1c	Sur-	Diſ-	1e	Sur-	Diſ-	1g	Sur-	Diſ-
1C	-re-	-ci-	1c	-re-	-ci-	1e	-re-	-ci-	1e	-re-	-ci-
1C	-xit	-pu-	1c	-xit	-pu-	1e	-xit	-pu-	1g	-xit	-pu-
=3-	=3-	=3-	=3-	=3-	=3-	=3-	=3-	=3-	=3-	=3-	=3-
0G	chri-	-lis	0B	chri-	-lis	0d	chri-	-lis	0g	chri-	-lis
1G	-ſtus	hoc	1B	-ſtus	hoc	1d	-ſtus	hoc	1g	-ſtus	hoc
=4-	=4-	=4-	=4-	=4-	=4-	=4-	=4-	=4-	=4-	=4-	=4-
0C	ho-	di-	0c	ho-	di-	0e	ho-	di-	0g	ho-	di-
!	!	!	!	!	!	!	!	!	!LO:TX:b:t=P:problem=# below	!	!
1D	-di-	-ci-	1A	-di-	-ci-	1d	-di-	-ci-	1f#	-di-	-ci-
=5-	=5-	=5-	=5-	=5-	=5-	=5-	=5-	=5-	=5-	=5-	=5-
0GG	-e	-te	0G	-e	-te	0d	-e	-te	0g	-e	-te
1G	Al-	.	1G	Al-	al-	1d	Al-	.	1b	Al-	.
=6-	=6-	=6-	=6-	=6-	=6-	=6-	=6-	=6-	=6-	=6-	=6-
0F	-le-	.	0A	-le-	-le-	0f	-le-	.	0cc	-le-	.
*	*	*	*	*	*	*custos:g	*	*	*	*	*
1C	-lu-	.	1c	-lu-	-lu-	1g	-lu-	.	1ee	-lu-	.
!	!	!	!	!	!	!LO:LB:g=original	!	!	!	!	!
=7-	=7-	=7-	=7-	=7-	=7-	=7-	=7-	=7-	=7-	=7-	=7-
0G	-ia	.	0B	-ia	-ia	1g	-ia	.	0dd	-ia	.
.	.	.	.	.	.	1G	.	.	.	.	.
*	*	*	*custos:G	*	*	*	*	*	*custos:e	*	*
*	*ij	*	*	*	*	*	*ij	*	*	*	*
1F	Al-	.	1A	al-	.	1A	Al-	.	1d	Al-	.
!	!	!	!LO:LB:g=original	!	!	!	!	!	!LO:LB:g=original	!	!
=8-	=8-	=8-	=8-	=8-	=8-	=8-	=8-	=8-	=8-	=8-	=8-
0E	-le-	.	0G	-le-	.	1.B	-le-	.	0e	-le-	.
.	.	.	.	.	.	2c/	.	.	.	.	.
*	*	*	*	*	*	*2\right	*	*	*	*	*
*custos:C	*	*	*	*	*	*	*	*	*	*	*
1D	-lu-	.	1G	-lu-	.	2d\	-lu-	.	1fny	-lu-	.
.	.	.	.	.	.	2B/	.	.	.	.	.
=9-	=9-	=9-	=9-	=9-	=9-	=9-	=9-	=9-	=9-	=9-	=9-
!	!	!	!	!	!	!LO:TX:t=X.	!	!	!	!	!
0C	-ia	.	0E	-ia	.	0c	-ia	.	0g	-ia	.
*	*Xij	*	*	*	*	*	*Xij	*	*	*	*
1rD	.	.	1rF	.	.	1rc	.	.	1rg	.	.
=10-	=10-	=10-	=10-	=10-	=10-	=10-	=10-	=10-	=10-	=10-	=10-
!LO:TX:t=P:problem=w tt. 10-14 wersy tekstu zamienione	!	!	!	!	!	!LO:TX:t=P:problem=w tt. 10-14 wersy tekstu zamienione	!	!	!LO:TX:t=P:problem=w tt. 10-14 wersy tekstu zamienione	!	!
1C	Hu-	q(uo)d	1E	Hu-	quod	1c	hu-	quod	1g	Hu-	quod
1C	-ma-	Sur-	1E	-ma-	Sur-	1c	-ma-	Sur-	1g	-ma-	Sur-
1C	-no	-re-	1E	-no	-re-	1c	-no	-re-	1g	-no	-re-
=11-	=11-	=11-	=11-	=11-	=11-	=11-	=11-	=11-	=11-	=11-	=11-
0BB	pro	-xit	0G	pro	-xit	0d	pro	-xit	0g	pro	-xit
1C	So-	Rex	1E	ſo-	rex	1c	So-	Rex	1g	ſo-	Rex
=12-	=12-	=12-	=12-	=12-	=12-	=12-	=12-	=12-	=12-	=12-	=12-
*col	*	*	*	*	*	*	*	*	*	*	*
1FF	-la-	glo-	1F	-la-	glo-	0c	-la-	glo-	1a	-la-	glo-
0GG	-mi-	-ri-	1.D	.	.	.	.	.	1.g	.	.
*Xcol	*	*	*	*	*	*	*	*	*	*	*
.	.	.	.	.	.	1B	-mi-	-ri-	.	.	.
.	.	.	2D/	-mi-	-ri-	.	.	.	2g/	-mi-	-ri-
=13-	=13-	=13-	=13-	=13-	=13-	=13-	=13-	=13-	=13-	=13-	=13-
0C	-ne	-ae	0C	-ne	-ae	0c	-ne	-ae	0e	-ne	-ae
1C	Al-	.	1E	al-	.	1g	Al-	.	1cc	Al-	.
=14-	=14-	=14-	=14-	=14-	=14-	=14-	=14-	=14-	=14-	=14-	=14-
1.E	-le-	.	1.G	-le-	.	1.e	-le-	.	1.b	-le-	.
*2\right	*	*	*	*	*	*	*	*	*2\right	*	*
2E\	-lu-	.	2G/	-lu-	.	2e\	-lu-	.	2b\	-lu-	.
1F	-ia	.	1F	-ia	.	2c/	-ia	.	1a	-ia	.
.	.	.	.	.	.	2c/	al-	al-	.	.	.
=15-	=15-	=15-	=15-	=15-	=15-	=15-	=15-	=15-	=15-	=15-	=15-
*	*ij	*	*	*	*	*	*	*	*	*	*
1C	Al-	.	1E	al-	.	0c	-le-	-le-	1g	al-	.
1.GG	-le-	.	1.D	-le-	.	.	.	.	1.g	-le-	.
.	.	.	.	.	.	1B	-lu-	-lu-	.	.	.
2GG/	-lu-	.	2D/	-lu-	.	.	.	.	2g/	-lu-	.
=16-	=16-	=16-	=16-	=16-	=16-	=16-	=16-	=16-	=16-	=16-	=16-
0.Cl;<	-ia	.	0.Cl;	-ia	.	0.cl;<	-ia	-ia	0.cl;	-ia	.
*	*Xij	*	*	*	*	*	*	*	*	*	*
!	!	!	!LO:LB:g=original	!	!	!LO:LB:g=original	!	!	!LO:LB:g=original	!	!
=17-	=17-	=17-	=17-	=17-	=17-	=17-	=17-	=17-	=17-	=17-	=17-
!LO:TX:a:t=Album <...>nentes \nTacet.	!	!	!LO:TX:a:t=Album \nTacet.	!	!	!LO:TX:a:t=Album \nTacet.	!	!	!LO:TX:a:t=Album \nTacet	!	!
0.ryy	.	.	0.ryy	.	.	0.ryy	.	.	0.ryy	.	.
=18-	=18-	=18-	=18-	=18-	=18-	=18-	=18-	=18-	=18-	=18-	=18-
*M3/1	*	*	*M3/1	*	*	*M3/1	*	*	*M3/1	*	*
*met(O)	*	*	*met(O)	*	*	*met(O)	*	*	*met(O)	*	*
!LO:TX:t=P:problem=dodatkowe oznaczenie 3/1	!	!	!LO:TX:t=P:problem=dodatkowe oznaczenie 3/1	!	!	!LO:TX:t=P:problem=dodatkowe oznaczenie 3/1	!	!	!LO:TX:t=P:problem=dodatkowe oznaczenie 3/1	!	!
1C	Mu-	Al-	1c	Mu-	Al-	1e	Mu-	Al-	1g	Mu-	Al-
1C	-li-	-bum	1c	-li-	-bum	1e	-li-	-bum	1g	-li-	-bum
1C	-e-	vi-	1c	-e-	vi-	1e	-e-	vi-	1g	-e-	vi-
=19-	=19-	=19-	=19-	=19-	=19-	=19-	=19-	=19-	=19-	=19-	=19-
0G	-res	-den-	0B	-res	-den-	0d	-res	-den-	0g	-res	-den-
1C	o	-tes	1c	o	-tes	1e	o	-tes	1g	o	-tes
=20-	=20-	=20-	=20-	=20-	=20-	=20-	=20-	=20-	=20-	=20-	=20-
0D	tre-	an-	0A	tre-	an-	0d	tre-	an-	0g	tre-	an-
1D	-mu-	-ge-	1A	-mu-	-ge-	1d	-mu-	-ge-	1f	-mu-	-ge-
=21-	=21-	=21-	=21-	=21-	=21-	=21-	=21-	=21-	=21-	=21-	=21-
!LO:SIC:v:l:verse=1:s=-lae	!	!	!LO:SIC:v:l:verse=1:s=-lae	!	!	!LO:SIC:v:l:verse=1:s=-lae	!	!	!LO:SIC:v:l:verse=1:s=-lae	!	!
0GG	-le	-lum	0G	-le	-lum	0d,	-le	-lum	0g,<	-le	-lum
1G	Al-	.	1G	al-	.	1d	o	al-	1b	Al-	.
=22-	=22-	=22-	=22-	=22-	=22-	=22-	=22-	=22-	=22-	=22-	=22-
2F\	-le-	.	2A/	-le-	.	0f	tre-	-le-	0cc	-le-	.
2E\	.	.	2G/	.	.	.	.	.	.	.	.
2F\	.	.	2A/	.	.	.	.	.	.	.	.
*	*	*	*2\right	*	*	*	*	*	*	*	*
2G\	.	.	2B\	.	.	.	.	.	.	.	.
1A	-lu-	.	2c\	.	.	1e	-mu-	-[lu-	1a	-lu-	.
*	*	*	*custos:B	*	*	*	*	*	*	*	*
.	.	.	2A/	-lu-	.	.	.	.	.	.	.
!	!	!	!LO:LB:g=original	!	!	!	!	!	!	!	!
=23-	=23-	=23-	=23-	=23-	=23-	=23-	=23-	=23-	=23-	=23-	=23-
!	!	!	!	!	!	!	!	!	!LO:SIC:v:s=0dd	!	!
0G	-ia	.	0B	-ia	.	1g	-le	-ia]	0cc	-ia	.
.	.	.	.	.	.	1G	.	.	.	.	.
!	!	!	!	!	!	!LO:TX:t=P:problem=tekst słowny podpisany zgodnie z pozostałymi głosami	!	!	!	!	!
*	*ij	*	*	*	*	*	*	*	*	*	*
1F	Al-	.	1A	al-	.	1A	al-	.	1d	al-	.
=24-	=24-	=24-	=24-	=24-	=24-	=24-	=24-	=24-	=24-	=24-	=24-
0E	-le-	.	0G	-le-	.	0B	-le-	.	0e	-le-	.
*	*	*	*	*	*	*custos:c	*	*	*	*	*
1D	-lu-	.	1F	-lu-	.	1B	-lu-	.	1f	-lu-	.
!	!	!	!	!	!	!LO:LB:g=original	!	!	!	!	!
=25-	=25-	=25-	=25-	=25-	=25-	=25-	=25-	=25-	=25-	=25-	=25-
0C	-ia	.	0E	-ia	.	0.c	-ia	.	0g	-ia	.
*	*Xij	*	*	*	*	*	*	*	*	*	*
1rD	.	.	1rF	.	.	.	.	.	1rg	.	.
!	!	!	!	!	!	!	!	!	!LO:LB:g=original	!	!
=26-	=26-	=26-	=26-	=26-	=26-	=26-	=26-	=26-	=26-	=26-	=26-
1C	in	an-	1E	in	an-	1c	in	an-	1g	in	an-
1C	Ga-	-nun-	1E	Ga-	-nun-	1c	Ga-	-nun-	1g	Ga-	-nun-
1C	-li-	-ti-	1E	-li-	-ti-	1c	-li-	-ti-	1g	-li-	-ti-
=27-	=27-	=27-	=27-	=27-	=27-	=27-	=27-	=27-	=27-	=27-	=27-
!LO:SIC:v:l:verse=1:s=-lae-	!	!	!LO:SIC:v:l:verse=1:s=-lae-	!	!	!LO:SIC:v:l:verse=1:s=-lae-	!	!	!LO:SIC:v:l:verse=1:s=-lae-	!	!
0BB	-le-	-an-	0G	-le-	-an-	0d	-le-	-an-	0g	-le-	-an-
1C	-am	-tem	1E	-am	-tem	1c	-am	-tem	1g	-am	-tem
=28-	=28-	=28-	=28-	=28-	=28-	=28-	=28-	=28-	=28-	=28-	=28-
*col	*	*	*	*	*	*	*	*	*	*	*
1FF	per-	gau-	1F	per-	gau-	0c	per-	gau-	1a	per-	gau-
*Xcol	*	*	*	*	*	*	*	*	*	*	*
0GG	-gi-	-di-	1.D	.	.	.	.	.	1.g	.	.
.	.	.	.	.	.	1B	-gi-	-di-	.	.	.
.	.	.	2D/	-gi-	-di-	.	.	.	2g/	-gi-	-di-
=29-	=29-	=29-	=29-	=29-	=29-	=29-	=29-	=29-	=29-	=29-	=29-
0C,<	-te	-um	0C	-te	-um	0.c	-te	-um	0.e	-te	-um
1C	Al-	.	1c	al-	al-	.	.	.	.	.	.
=30-	=30-	=30-	=30-	=30-	=30-	=30-	=30-	=30-	=30-	=30-	=30-
1.G	-le-	.	1.B	-le-	-le-	1r	.	.	00.r	.	.
.	.	.	.	.	.	1r	.	.	.	.	.
2G\	-lu-	.	2B\	-lu-	-lu-	.	.	.	.	.	.
2F\	-ia	.	2A\	-ia	-[ia]	1d	Al-	.	.	.	.
*	*ij	*	*	*	*	*	*	*	*	*	*
2F\	Al-	.	2A\	al-	.	.	.	.	.	.	.
=31-	=31-	=31-	=31-	=31-	=31-	=31-	=31-	=31-	=31-	=31-	=31-
2E\	-le-	.	2G/	-le-	.	1.g	-le-	.	.	.	.
2D\	.	.	2F/	.	.	.	.	.	.	.	.
2E\	-lu-	.	2G/	.	.	.	.	.	.	.	.
2C\	.	.	2E/	.	.	2g\	-lu-	.	.	.	.
1D	-ia	.	2A/	.	.	2f\	-ia	.	.	.	.
.	.	.	2B/	.	.	2f\	al-	.	.	.	.
!	!	!	!LO:LB:g=original	!	!	!	!	!	!	!	!
=32-	=32-	=32-	=32-	=32-	=32-	=32-	=32-	=32-	=32-	=32-	=32-
1C	Al-	.	0c	.	.	1e	-le-	.	0.rg	.	.
1.G	-le-	.	.	.	.	1.d	.	.	.	.	.
.	.	.	1B	-lu-	.	.	.	.	.	.	.
2G\	-lu-	.	.	.	.	2d\	-lu-	.	.	.	.
=33-	=33-	=33-	=33-	=33-	=33-	=33-	=33-	=33-	=33-	=33-	=33-
0C	-ia	.	0c	-ia	.	0e	-ia	.	1r	.	.
.	.	.	.	.	.	.	.	.	1r	.	.
*custos:AA	*	*	*	*	*	*custos:a	*	*	*	*	*
*	*	*	*	*	*	*	*ij	*	*	*	*
1AA	Al-	.	1e	al-	.	1a	al-	.	1cc	Al-	.
!	!	!	!	!	!	!LO:LB:g=original	!	!	!	!	!
=34-	=34-	=34-	=34-	=34-	=34-	=34-	=34-	=34-	=34-	=34-	=34-
1.AA	-le-	.	1.e	-le-	.	1.a	-le-	.	1.cc	-le-	.
2AA/	.	.	2e\	.	.	2a\	-lu-	.	2cc\	-lu-	.
2BB/	.	.	2d\	-lu-	.	2g\	-ia	.	2b\	-ia	.
2BB/	.	.	2d\	-ia	.	2g\	al-	.	2b\	Al-	.
=35-	=35-	=35-	=35-	=35-	=35-	=35-	=35-	=35-	=35-	=35-	=35-
0C	.	.	2c\	al-	.	1.e	-le-	.	2a\	-le-	.
.	.	.	2B\	-le-	.	.	.	.	2g\	.	.
.	.	.	2c\	.	.	.	.	.	2a\	.	.
!	!	!	!	!	!	!LO:SIC:v:s=2d:t=lub 2f	!	!	!	!	!
.	.	.	2A\	.	.	2e\	-lu-	.	2f/	.	.
!LO:TX:t=P:problem=kreska pseudotaktowa	!	!	!	!	!	!	!	!	!	!	!
1E	.	.	1B	.	.	1e	-ia	.	1g	.	.
=36-	=36-	=36-	=36-	=36-	=36-	=36-	=36-	=36-	=36-	=36-	=36-
1C	.	.	1c	.	.	1e	al-	.	0cc	-lu-	.
1D	.	.	1.B	.	.	1f	-le-	.	.	.	.
1E	.	.	.	.	.	1e	-lu-	.	1b	.	.
.	.	.	2B\	-lu-	.	.	.	.	.	.	.
=37-	=37-	=37-	=37-	=37-	=37-	=37-	=37-	=37-	=37-	=37-	=37-
0AA	.	.	0A	-ia	.	0c	-ia	.	0cc;	-ia	.
!LO:TX:t=P:problem=kreska pseudotaktowa	!	!	!	!	!	!	!	!	!	!	!
*	*	*	*	*ij	*	*	*	*	*	*ij	*
!	!	!	!	!	!	!	!	!	!LO:LB:g=original	!	!
1GG	.	.	1d	al-	.	1g	al-	.	1b	Al-	.
=38-	=38-	=38-	=38-	=38-	=38-	=38-	=38-	=38-	=38-	=38-	=38-
1.GG	.	.	1.d	-le-	.	1.g	-le-	.	1.b	-le-	.
2GG/	.	.	2d\	-lu-	.	2g\	-lu-	.	2b\	-lu-	.
2AA/	.	.	2c\	-ia	.	2e\	-ia	.	2a\	-ia	.
*	*	*	*custos:B	*	*	*	*	*	*	*	*
2AA/	.	.	2c\	al-	.	2e\	al-	.	2a\	Al-	.
!	!	!	!LO:LB:g=original	!	!	!	!	!	!	!	!
=39-	=39-	=39-	=39-	=39-	=39-	=39-	=39-	=39-	=39-	=39-	=39-
!	!	!	!LO:TX:t=P:problem=wymazany dźwięk 2c	!	!	!	!	!	!	!	!
0BB	.	.	1.B	-le-	.	0d	-le-	.	0g	-le-	.
.	.	.	2A/	.	.	.	.	.	.	.	.
1C	.	.	0G	.	.	1e	.	.	1cc	.	.
=40-	=40-	=40-	=40-	=40-	=40-	=40-	=40-	=40-	=40-	=40-	=40-
0D	.	.	.	.	.	0d	.	.	0a	.	.
!	!	!	!LO:TX:b:t=P:♯below:problem	!	!	!	!	!	!	!	!
.	.	.	1F#X	.	.	.	.	.	.	.	.
!	!	!	!LO:TX:b:t=P:♯below:problem	!	!	!	!	!	!	!	!
1D	-lu-	.	1F#X	-lu-	.	1d	-lu-	.	1a	-lu-	.
=41-	=41-	=41-	=41-	=41-	=41-	=41-	=41-	=41-	=41-	=41-	=41-
0.GGl;	-ia	.	0.Gl;	-ia	.	0.dl;	-ia	.	0.bl;	-ia	.
*	*Xij	*	*	*Xij	*	*	*Xij	*	*	*Xij	*
!	!	!	!	!	!	!LO:LB:g=original	!	!	!LO:LB:g=original	!	!
=42-	=42-	=42-	=42-	=42-	=42-	=42-	=42-	=42-	=42-	=42-	=42-
!LO:TX:b:t=Vide Su p x	!	!	!LO:TX:b:t=Vide Su p x	!	!	!LO:TX:b:t=Vide Su &colon;p. x	!	!	!LO:TX:b:t=Vide Su p +	!	!
!LO:TX:a:t=Diſcipulis \n&#91;&#91;Tacet&#93;&#93;	!	!	!LO:TX:a:t=Diſcipulis \n&#91;&#91;Tacet.&#93;&#93;	!	!	!LO:TX:a:t=Diſcipulis \n&#91;&#91;Tacet.&#93;&#93;	!	!	!LO:TX:a:t=Diſcipulis \n&#91;&#91;Tacet&#93;&#93;	!	!
0.ryy	.	.	0.ryy	.	.	0.ryy	.	.	0.ryy	.	.
=43-	=43-	=43-	=43-	=43-	=43-	=43-	=43-	=43-	=43-	=43-	=43-
*M3/1	*	*	*M3/1	*	*	*M3/1	*	*	*M3/1	*	*
*met(O)	*	*	*met(O)	*	*	*met(O)	*	*	*met(O)	*	*
!LO:TX:t=P:problem=dodatkowe oznaczenie 3/1	!	!	!LO:TX:t=P:problem=dodatkowe oznaczenie 3/1	!	!	!LO:TX:t=P:problem=dodatkowe oznaczenie 3/1	!	!	!LO:TX:t=P:problem=dodatkowe oznaczenie 3/1	!	!
1C	Al-	.	1e	Al-	.	1g	Al-	.	1cc	Al-	.
1E	-le-	.	1c	-le-	.	1e	-le-	.	1g	-le-	.
1C	-lu-	.	1e	-lu-	.	1g	-lu-	.	1cc	-lu-	.
=44-	=44-	=44-	=44-	=44-	=44-	=44-	=44-	=44-	=44-	=44-	=44-
1.G	-ia	.	2d\	-ia	.	1.g	-ia	.	0b	-ia	.
.	.	.	2c\	.	.	.	.	.	.	.	.
.	.	.	2B\	.	.	.	.	.	.	.	.
2F\	[[al-	.	2A\	.	.	2d\	al-	.	.	.	.
*	*	*	*custos:c	*	*	*	*	*	*	*	*
1E	-le]]	.	1G	.	.	2e\	.	.	1b	al-	.
.	.	.	.	.	.	2e\	-le-	.	.	.	.
!	!	!	!LO:LB:g=original	!	!	!	!	!	!	!	!
=45-	=45-	=45-	=45-	=45-	=45-	=45-	=45-	=45-	=45-	=45-	=45-
1C	al-	.	1c	al-	.	1g	.	.	1ee	-le-	.
1.D	-le-	.	1.A	-le-	.	1g	-lu-	.	1.dd	.	.
!	!	!	!	!	!	!LO:TX:b:t=P:♯below:problem	!	!	!	!	!
.	.	.	.	.	.	1f#X	.	.	.	.	.
2D/	-lu-	.	2A/	-lu-	.	.	.	.	2dd\	-lu-	.
=46-	=46-	=46-	=46-	=46-	=46-	=46-	=46-	=46-	=46-	=46-	=46-
!LO:TX:t=P:problem=kreska pseudotaktowa	!	!	!	!	!	!	!	!	!	!	!
!LO:N:vis=0	!	!	!	!	!	!	!	!	!	!	!
0GG	-ia	.	0B	-ia	.	0g	-ia	.	0dd	-ia	.
1rC	.	.	1r	.	.	1rg	.	.	1ree	.	.
=47-	=47-	=47-	=47-	=47-	=47-	=47-	=47-	=47-	=47-	=47-	=47-
*	*	*	*	*	*	*	*ij	*	*	*ij	*
1D	al-	.	1d	al-	.	1fny	al-	.	1a	Al-	.
1F	-le-	.	1d	-le-	.	1a	-le-	.	1a	-le-	.
1D	-lu-	.	1d	-lu-	.	1f	-lu-	.	1a	-lu-	.
!	!	!	!	!	!	!LO:LB:g=original	!	!	!	!	!
=48-	=48-	=48-	=48-	=48-	=48-	=48-	=48-	=48-	=48-	=48-	=48-
1.A	-ia	.	1.c	-ia	.	1e	-ia	.	1.a	-ia	.
.	.	.	.	.	.	1.a	al-	.	.	.	.
2G\	.	.	2B\	.	.	.	.	.	2b\	.	.
*custos:D	*	*	*	*	*	*	*	*	*	*	*
1F	.	.	1A	.	.	.	.	.	1cc	al-	.
.	.	.	.	.	.	2g\	-le-	.	.	.	.
=49-	=49-	=49-	=49-	=49-	=49-	=49-	=49-	=49-	=49-	=49-	=49-
1D	al-	.	1A	al-	.	1f	-lu-	.	1dd	-le-	.
1.E	-le-	.	1A	-le-	.	1.e	-ia	.	1.b	.	.
.	.	.	1G#X	-lu-	.	.	.	.	.	.	.
*	*	*	*	*	*	*	*	*	*custos:a	*	*
2E\	-lu-	.	.	.	.	2e\	al-	.	2b\	-le-	.
!	!	!	!	!	!	!	!	!	!LO:LB:g=original	!	!
=50-	=50-	=50-	=50-	=50-	=50-	=50-	=50-	=50-	=50-	=50-	=50-
0AA	-ia	.	0A	-ia	.	0e	-le-	.	0a	ia	.
*	*ij	*	*	*ij	*	*	*	*	*	*	*
1FF	al-	.	1c	al-	.	1f	.	.	1a	al-	.
=51-	=51-	=51-	=51-	=51-	=51-	=51-	=51-	=51-	=51-	=51-	=51-
0GG	-le-	.	0c	-le-	.	0.d	-lu-	.	0g	-le-	.
1GG	-lu-	.	1B	-lu-	.	.	.	.	1g	-lu-	.
=52-	=52-	=52-	=52-	=52-	=52-	=52-	=52-	=52-	=52-	=52-	=52-
!LO:TX:t=P:problem=kreska pseudotaktowa po oznaczeniu menzuralnym	!	!	!	!	!	!LO:TX:t=P:problem=kreska pseudotaktowa po oznaczeniu menzuralnym	!	!	!LO:TX:t=P:problem=kreska pseudotaktowa po oznaczeniu menzuralnym	!	!
0.Cl;	-ia	.	0.cl;<	-ia	.	0.el	-ia	.	0.gl;<	-ia	.
*	*Xij	*	*	*Xij	*	*	*Xij	*	*	*Xij	*
!	!	!	!LO:LB:g=original	!	!	!LO:LB:g=original	!	!	!	!	!
=53-	=53-	=53-	=53-	=53-	=53-	=53-	=53-	=53-	=53-	=53-	=53-
*M3/1	*	*	*M3/1	*	*	*M3/1	*	*	*M3/1	*	*
*met(O)	*	*	*met(O)	*	*	*met(O)	*	*	*met(O)	*	*
!LO:TX:t=P:problem=dodatkowe oznaczenie 3/1	!	!	!LO:TX:t=P:problem=dodatkowe oznaczenie 3/1	!	!	!LO:TX:t=P:problem=dodatkowe oznaczenie 3/1	!	!	!LO:TX:t=P:problem=dodatkowe oznaczenie 3/1	!	!
00.r	.	.	00.r	.	.	00.r	.	.	00.r	.	.
=54-	=54-	=54-	=54-	=54-	=54-	=54-	=54-	=54-	=54-	=54-	=54-
.	.	.	.	.	.	.	.	.	.	.	.
=55-	=55-	=55-	=55-	=55-	=55-	=55-	=55-	=55-	=55-	=55-	=55-
!LO:TX:t=P:problem=kreska pseudotaktowa	!	!	!	!	!	!LO:TX:t=P:problem=kreska pseudotaktowa	!	!	!LO:TX:t=P:problem=kreska pseudotaktowa	!	!
00.r	.	.	00.r	.	.	00.r	.	.	00.r	.	.
=56-	=56-	=56-	=56-	=56-	=56-	=56-	=56-	=56-	=56-	=56-	=56-
.	.	.	.	.	.	.	.	.	.	.	.
=57-	=57-	=57-	=57-	=57-	=57-	=57-	=57-	=57-	=57-	=57-	=57-
1C	Lau-	.	1c	Lau-	.	1e	Lau-	.	1g	Lau-	.
1C	-de-	.	1c	-de-	.	1e	-de-	.	1g	-de-	.
1C	-tur	.	1c	-tur	.	1e	-tur	.	1g	-tur	.
=58-	=58-	=58-	=58-	=58-	=58-	=58-	=58-	=58-	=58-	=58-	=58-
0G	San-	.	0B	San-	.	0d	San-	.	0g	San-	.
1G	-cta	.	1B	-cta	.	1d	-cta	.	1g	-cta	.
=59-	=59-	=59-	=59-	=59-	=59-	=59-	=59-	=59-	=59-	=59-	=59-
0C	Tri-	.	0c	Tri-	.	0e	Tri-	.	0g	Tri-	.
1D	-ni-	.	1A	-ni-	.	1d	-ni-	.	1f	-ni-	.
=60-	=60-	=60-	=60-	=60-	=60-	=60-	=60-	=60-	=60-	=60-	=60-
!LO:TX:t=P:problem=kreska pseudotaktowa	!	!	!LO:TX:t=P:problem=kreska pseudotaktowa	!	!	!LO:TX:t=P:problem=kreska pseudotaktowa	!	!	!LO:TX:t=P:problem=kreska pseudotaktowa	!	!
0.GG	-tas	.	0.Gny	-tas	.	0.B	-tas	.	0.g	-tas	.
=61-	=61-	=61-	=61-	=61-	=61-	=61-	=61-	=61-	=61-	=61-	=61-
00.r	.	.	00.r	.	.	00.r	.	.	00.r	.	.
=62-	=62-	=62-	=62-	=62-	=62-	=62-	=62-	=62-	=62-	=62-	=62-
.	.	.	.	.	.	.	.	.	.	.	.
=63-	=63-	=63-	=63-	=63-	=63-	=63-	=63-	=63-	=63-	=63-	=63-
*custos:G	*	*	*	*	*	*	*	*	*custos:b	*	*
0.r	.	.	0.r	.	.	0.r	.	.	0.r	.	.
!	!	!	!	!	!	!	!	!	!LO:LB:g=original	!	!
=64-	=64-	=64-	=64-	=64-	=64-	=64-	=64-	=64-	=64-	=64-	=64-
1r	.	.	1r	.	.	1r	.	.	1r	.	.
!LO:TX:t=P:problem=kreska pseudotaktowa	!	!	!LO:TX:t=P:problem=kreska pseudotaktowa	!	!	!LO:TX:t=P:problem=kreska pseudotaktowa	!	!	!LO:TX:t=P:problem=kreska pseudotaktowa	!	!
1r	.	.	1r	.	.	1r	.	.	1r	.	.
1G	Al-	.	1G	al-	.	1d	Al-	.	1b	Al-	.
=65-	=65-	=65-	=65-	=65-	=65-	=65-	=65-	=65-	=65-	=65-	=65-
0F	-le-	.	0A	-le-	.	0f	-le-	.	0cc	-le-	.
1C	-lu-	.	1c	-lu-	.	1g	-lu-	.	1ee	-lu-	.
=66-	=66-	=66-	=66-	=66-	=66-	=66-	=66-	=66-	=66-	=66-	=66-
0G	-ia	.	0B	-ia	.	1g	-ia	.	0dd	-ia	.
*	*ij	*	*	*	*	*	*ij	*	*	*	*
.	.	.	.	.	.	1G	Al-	.	.	.	.
1F	Al-	.	1A	al-	.	1A	.	.	1d	al-	.
=67-	=67-	=67-	=67-	=67-	=67-	=67-	=67-	=67-	=67-	=67-	=67-
0E	-le-	.	0G	-le-	.	1.B	-le-	.	0e	-le-	.
.	.	.	.	.	.	2c\	.	.	.	.	.
1D	-lu-	.	1Fny	-lu-	.	2d\	-lu-	.	1f	-lu-	.
*	*	*	*	*	*	*custos:c	*	*	*	*	*
.	.	.	.	.	.	2A/	.	.	.	.	.
!	!	!	!	!	!	!LO:PB:g=original	!	!	!	!	!
=68-	=68-	=68-	=68-	=68-	=68-	=68-	=68-	=68-	=68-	=68-	=68-
!LO:TX:t=P:problem=kreska pseudotaktowa	!	!	!	!	!	!	!	!	!	!	!
!	!	!	!LO:TX:t=P:problem=kreska pseudotaktowa	!	!	!	!	!	!	!	!
0.C	-ia	.	0.E	-ia	.	0c	-ia	.	0g	-ia	.
*	*Xij	*	*	*	*	*	*Xij	*	*	*	*
!	!	!	!	!	!	!LO:TX:t=P:problem=kreska pseudotaktowa	!	!	!LO:TX:t=P:problem=kreska pseudotaktowa	!	!
.	.	.	.	.	.	1rc	.	.	1rg	.	.
!	!	!	!LO:PB:g=original	!	!	!	!	!	!	!	!
=69-	=69-	=69-	=69-	=69-	=69-	=69-	=69-	=69-	=69-	=69-	=69-
!	!	!	!	!	!	!	!	!	!LO:TX:t=P:problem=kreska pseudotaktowa	!	!
00.r	.	.	00.r	.	.	00.r	.	.	00.r	.	.
=70-	=70-	=70-	=70-	=70-	=70-	=70-	=70-	=70-	=70-	=70-	=70-
.	.	.	.	.	.	.	.	.	.	.	.
=71-	=71-	=71-	=71-	=71-	=71-	=71-	=71-	=71-	=71-	=71-	=71-
!LO:TX:t=P:problem=kreska pseudotaktowa	!	!	!LO:TX:t=P:problem=kreska pseudotaktowa	!	!	!LO:TX:t=P:problem=kreska pseudotaktowa	!	!	!LO:TX:t=P:problem=brak pauzy 00.	!	!
00.r	.	.	00.r	.	.	00.r	.	.	00.ryy	.	.
=72-	=72-	=72-	=72-	=72-	=72-	=72-	=72-	=72-	=72-	=72-	=72-
.	.	.	.	.	.	.	.	.	.	.	.
=73-	=73-	=73-	=73-	=73-	=73-	=73-	=73-	=73-	=73-	=73-	=73-
1C	De-	.	1E	De-	.	1c	De-	.	1g	De-	.
1C	-o	.	1E	-o	.	1c	-o	.	1g	-o	.
1C	di-	.	1E	di-	.	1c	di-	.	1g	di-	.
=74-	=74-	=74-	=74-	=74-	=74-	=74-	=74-	=74-	=74-	=74-	=74-
0BB	-ca-	.	0G	-ca-	.	0d	-ca-	.	0g	-ca-	.
1C	-mus	.	1E	-mus	.	1c	-mus	.	1g	-mus	.
=75-	=75-	=75-	=75-	=75-	=75-	=75-	=75-	=75-	=75-	=75-	=75-
1FF	gra-	.	(>2F/	gra-	.	0c	gra-	.	1a	gra-	.
.	.	.	2E/)	.	.	.	.	.	.	.	.
1.GG	.	.	1.D	.	.	.	.	.	1.g	.	.
.	.	.	.	.	.	1B	-ti-	.	.	.	.
2GG/	-ti-	.	2D/	-ti-	.	.	.	.	2g/	-ti-	.
=76-	=76-	=76-	=76-	=76-	=76-	=76-	=76-	=76-	=76-	=76-	=76-
!LO:TX:t=P:problem=kreska pseudotaktowa	!	!	!	!	!	!	!	!	!	!	!
!	!	!	!LO:TX:t=P:problem=kreska pseudotaktowa	!	!	!LO:TX:t=P:problem=kreska pseudotaktowa	!	!	!LO:TX:t=P:problem=kreska pseudotaktowa	!	!
0.C	-as	.	0.C;	-as	.	0.c	-as	.	0e	-as	.
.	.	.	.	.	.	.	.	.	1re	.	.
=77-	=77-	=77-	=77-	=77-	=77-	=77-	=77-	=77-	=77-	=77-	=77-
*	*	*	*	*	*	*	*	*	*custos:b	*	*
00.r	.	.	00.r	.	.	00.r	.	.	00.r	.	.
!	!	!	!	!	!	!	!	!	!LO:PB:g=original	!	!
=78-	=78-	=78-	=78-	=78-	=78-	=78-	=78-	=78-	=78-	=78-	=78-
.	.	.	.	.	.	.	.	.	.	.	.
=79-	=79-	=79-	=79-	=79-	=79-	=79-	=79-	=79-	=79-	=79-	=79-
1r	.	.	1rF	.	.	1r	.	.	1r	.	.
!LO:TX:t=P:problem=kreska pseudotaktowa	!	!	!LO:TX:t=P:problem=kreska pseudotaktowa	!	!	!LO:TX:t=P:problem=kreska pseudotaktowa	!	!	!LO:TX:t=P:problem=kreska pseudotaktowa	!	!
1r	.	.	1rF	.	.	1r	.	.	1r	.	.
1G	Al-	.	1G	Al-	.	1d	al-	.	1b	Al-	.
=80-	=80-	=80-	=80-	=80-	=80-	=80-	=80-	=80-	=80-	=80-	=80-
1.F	-le-	.	1.A	-le-	.	2f\	-le-	.	1.cc	-le-	.
.	.	.	.	.	.	2g\	-lu-	.	.	.	.
.	.	.	.	.	.	1g	-ia	.	.	.	.
2G\	-lu-	.	2B\	-lu-	.	.	.	.	2b\	-lu-	.
*	*	*	*	*	*	*	*ij	*	*	*	*
*custos:G	*	*	*	*	*	*	*	*	*	*	*
1A	-ia	.	1c	-ia	.	2e\	al-	.	1a	-ia	.
.	.	.	.	.	.	2f\	.	.	.	.	.
=81-	=81-	=81-	=81-	=81-	=81-	=81-	=81-	=81-	=81-	=81-	=81-
1G	.	.	1B	al-	.	0g	-le-	.	1dd	al-	.
1.D	.	.	1.A	-le-	.	.	.	.	1.dd	-le-	.
.	.	.	.	.	.	1f	-lu-	.	.	.	.
2D/	.	.	2A/	-lu-	.	.	.	.	2dd\	-lu-	.
=82-	=82-	=82-	=82-	=82-	=82-	=82-	=82-	=82-	=82-	=82-	=82-
*	*	*	*	*	*	*custos:d	*	*	*	*	*
!LO:TX:t=P:problem=kreska pseudotaktowa	!	!	!LO:TX:t=P:problem=kreska pseudotaktowa	!	!	!	!	!	!LO:TX:t=P:problem=kreska pseudotaktowa	!	!
0.GG	.	.	0.B	-ia	.	0.g	-ia	.	0.dd	-ia.	.
!	!	!	!	!	!	!LO:LB:g=original	!	!	!	!	!
=83-	=83-	=83-	=83-	=83-	=83-	=83-	=83-	=83-	=83-	=83-	=83-
00.r	.	.	00.r	.	.	00.r	.	.	00.ree	.	.
=84-	=84-	=84-	=84-	=84-	=84-	=84-	=84-	=84-	=84-	=84-	=84-
.	.	.	.	.	.	.	.	.	.	.	.
=85-	=85-	=85-	=85-	=85-	=85-	=85-	=85-	=85-	=85-	=85-	=85-
*	*	*	*custos:B	*	*	*	*	*	*	*	*
0.rD	.	.	0.r	.	.	0.r	.	.	0.r	.	.
=86-	=86-	=86-	=86-	=86-	=86-	=86-	=86-	=86-	=86-	=86-	=86-
1rD	.	.	1r	.	.	1r	.	.	1r	.	.
!	!	!	!LO:TX:t=P:problem=kreska pseudotaktowa	!	!	!LO:TX:t=P:problem=kreska pseudotaktowa	!	!	!LO:TX:t=P:problem=kreska pseudotaktowa	!	!
1rD	.	.	1r	.	.	1r	.	.	1r	.	.
*	*	*	*	*	*	*	*	*	*	*ij	*
1G	Al-	.	1B	al-	.	1d	al-	.	1g	al-	.
=87-	=87-	=87-	=87-	=87-	=87-	=87-	=87-	=87-	=87-	=87-	=87-
0F	-le-	.	1.c	-le-	.	0f	-le-	.	1.a	-le-	.
.	.	.	2d\	-lu-	.	.	.	.	2b\	-lu-	.
1E	-lu-	.	2e\	-ia	.	1g	.	.	2cc\	-ia.	.
*	*	*	*	*	*	*	*	*	*	*Xij	*
.	.	.	2e\	al-	.	.	.	.	2cc\	Al-	.
=88-	=88-	=88-	=88-	=88-	=88-	=88-	=88-	=88-	=88-	=88-	=88-
2D\	-ia	.	1.f	-le-	.	1.a	-lu-	.	1dd	-le-	.
2E\	.	.	.	.	.	.	.	.	.	.	.
2F\	.	.	.	.	.	.	.	.	1.a	.	.
2G\	.	.	4e\	.	.	4g\	.	.	.	.	.
.	.	.	4d\	.	.	4f\	.	.	.	.	.
!	!	!	!LO:TX:b:t=P:♯below:problem	!	!	!	!	!	!	!	!
1A	.	.	1c#X	.	.	1e	-ia	.	.	.	.
.	.	.	.	.	.	.	.	.	2g\	.	.
=89-	=89-	=89-	=89-	=89-	=89-	=89-	=89-	=89-	=89-	=89-	=89-
1B-X	.	.	0d	.	.	1d	al-	.	1f	.	.
*	*	*	*	*	*	*	*	*	*custos:a	*	*
1G	.	.	.	.	.	1g	-le-	.	1b-X	.	.
!	!	!	!	!	!	!	!	!	!LO:LB:g=original	!	!
1A	.	.	1c#X	-lu-	.	1e	-lu-	.	1a	-lu-	.
=90-	=90-	=90-	=90-	=90-	=90-	=90-	=90-	=90-	=90-	=90-	=90-
!LO:TX:t=P:problem=kreska pseudotaktowa	!	!	!LO:TX:t=P:problem=kreska pseudotaktowa	!	!	!LO:TX:t=P:problem=kreska pseudotaktowa	!	!	!LO:TX:t=P:problem=kreska pseudotaktowa	!	!
0.D	.	.	0.d	-ia	.	0.f	-ia	.	0.a	-ia	.
=91-	=91-	=91-	=91-	=91-	=91-	=91-	=91-	=91-	=91-	=91-	=91-
00.r	.	.	00.r	.	.	00.r	.	.	00.r	.	.
=92-	=92-	=92-	=92-	=92-	=92-	=92-	=92-	=92-	=92-	=92-	=92-
.	.	.	.	.	.	.	.	.	.	.	.
=93-	=93-	=93-	=93-	=93-	=93-	=93-	=93-	=93-	=93-	=93-	=93-
!LO:TX:t=P:problem=kreska pseudotaktowa	!	!	!LO:TX:t=P:problem=kreska pseudotaktowa	!	!	!LO:TX:t=P:problem=kreska pseudotaktowa	!	!	!LO:TX:t=P:problem=kreska pseudotaktowa	!	!
0.rD	.	.	0.r	.	.	0.r	.	.	0.r	.	.
=94-	=94-	=94-	=94-	=94-	=94-	=94-	=94-	=94-	=94-	=94-	=94-
*	*ij	*	*	*	*	*	*	*	*	*	*
2AA/	Al-	.	1.e	al-	.	1a	al-	.	1.cc	Al-	.
2BB/	.	.	.	.	.	.	.	.	.	.	.
2C/	-le-	.	.	.	.	1.e	.	.	.	.	.
2D/	-lu-	.	4d\	.	.	.	.	.	4bny\	.	.
.	.	.	4cny\	.	.	.	.	.	4a\	.	.
*custos:F	*	*	*	*	*	*	*	*	*	*	*
!	!	!	!	!	!	!	!	!	!LO:TX:b:t=P:♯below:problem	!	!
1E	-ia	.	1B	.	.	.	.	.	1g#X	.	.
.	.	.	.	.	.	2d\	.	.	.	.	.
=95-	=95-	=95-	=95-	=95-	=95-	=95-	=95-	=95-	=95-	=95-	=95-
1F	Al-	.	1A	-le-	.	1c	-le-	.	1a	.	.
1D	-le-	.	1.B	.	.	1f	.	.	1a	-le-	.
!	!	!	!	!	!	!	!	!	!LO:TX:b:t=P:♯below:problem	!	!
1E	-lu-	.	.	.	.	1e	-lu-	.	1g#X	-lu-	.
.	.	.	2B\	-lu-	.	.	.	.	.	.	.
=96-	=96-	=96-	=96-	=96-	=96-	=96-	=96-	=96-	=96-	=96-	=96-
!	!	!	!	!	!	!	!	!	!LO:TX:t=P:problem=kreska pseudotaktowa	!	!
0AA	-ia	.	0A	-ia	.	0c	-ia	.	0.a	-ia	.
*	*	*	*	*	*	*	*Xij	*	*	*	*
!LO:TX:t=P:problem=kreska pseudotaktowa	!	!	!	!	!	!LO:TX:t=P:problem=kreska pseudotaktowa	!	!	!	!	!
1rC	.	.	1rA	.	.	1rc	.	.	.	.	.
=97-	=97-	=97-	=97-	=97-	=97-	=97-	=97-	=97-	=97-	=97-	=97-
*	*	*	*	*	*	*custos:f	*	*	*	*	*
!LO:TX:t=P:problem=kreska pseudotaktowa	!	!	!	!	!	!LO:TX:t=P:problem=kreska pseudotaktowa	!	!	!LO:TX:t=P:problem=kreska pseudotaktowa	!	!
0.rD	.	.	0.r	.	.	0.r	.	.	0.r	.	.
!	!	!	!	!	!	!LO:LB:g=original	!	!	!	!	!
=98-	=98-	=98-	=98-	=98-	=98-	=98-	=98-	=98-	=98-	=98-	=98-
1.FF	Al-	.	1.c	al-	.	1.f	al-	.	1.a	Al-	.
2FF/	.	.	2c\	-le-	.	2f\	-le-	.	2a\	-le-	.
2GG/	.	.	2B-X\	-lu-	.	2d\	-lu-	.	2gny\	-lu-	.
2GG/	.	.	2B-X\	-ia	.	2d\	-ia	.	2g\	-ia	.
=99-	=99-	=99-	=99-	=99-	=99-	=99-	=99-	=99-	=99-	=99-	=99-
*	*	*	*	*	*	*	*	*	*	*ij	*
1AA	.	.	1A	al-	.	1c	al-	.	1f	Al-	.
1BB-X	-le-	.	1.G	-le-	.	1d	-le-	.	1f	-le-	.
1C	-lu-	.	.	.	.	1c	-lu-	.	1e	-lu-	.
.	.	.	2G/	-lu-	.	.	.	.	.	.	.
=100-	=100-	=100-	=100-	=100-	=100-	=100-	=100-	=100-	=100-	=100-	=100-
1FF	-ia	.	1A	-ia	.	1c	-ia	.	1f	-ia	.
*	*	*	*	*	*	*	*	*	*	*Xij	*
1rAA	.	.	1rA	.	.	1rc	.	.	1r	.	.
!LO:TX:t=P:problem=kreska pseudotaktowa	!	!	!LO:TX:t=P:problem=kreska pseudotaktowa	!	!	!LO:TX:t=P:problem=kreska pseudotaktowa	!	!	!LO:TX:t=P:problem=kreska pseudotaktowa	!	!
1rAA	.	.	1rA	.	.	1rc	.	.	1r	.	.
=101-	=101-	=101-	=101-	=101-	=101-	=101-	=101-	=101-	=101-	=101-	=101-
*	*	*	*	*	*	*	*	*	*custos:cc	*	*
!LO:TX:t=P:problem=kreska pseudotaktowa	!	!	!LO:TX:t=P:problem=kreska pseudotaktowa	!	!	!LO:TX:t=P:problem=kreska pseudotaktowa	!	!	!LO:TX:t=P:problem=kreska pseudotaktowa	!	!
0.r	.	.	0.r	.	.	0.r	.	.	0.r	.	.
!	!	!	!	!	!	!	!	!	!LO:LB:g=original	!	!
=102-	=102-	=102-	=102-	=102-	=102-	=102-	=102-	=102-	=102-	=102-	=102-
*	*	*	*	*ij	*	*	*	*	*	*ij	*
1.C	Al-	.	1.e	al-	.	1.g	al-	.	1.cc	Al-	.
2F\	-le-	.	2f\	-le-	.	2a\	-le-	.	2cc\	-le-	.
1G	-lu-	.	1d	-lu-	.	1g	-lu-	.	1b	-lu-	.
=103-	=103-	=103-	=103-	=103-	=103-	=103-	=103-	=103-	=103-	=103-	=103-
0.C	-ia	.	0.e	-ia	.	0.g	-ia	.	0.cc	-ia	.
=104-	=104-	=104-	=104-	=104-	=104-	=104-	=104-	=104-	=104-	=104-	=104-
*M2/1	*	*	*M2/1	*	*	*M2/1	*	*	*M2/1	*	*
*met(C)	*	*	*met(C)	*	*	*met(C)	*ij	*	*met(C)	*	*
1GG	Al-	.	1d	al-	.	1.g	al-	.	1b	Al-	.
1.C	.	.	1.e	.	.	.	.	.	1.cc	.	.
.	.	.	.	.	.	4c\	.	.	.	.	.
.	.	.	.	.	.	4d\	.	.	.	.	.
=105-	=105-	=105-	=105-	=105-	=105-	=105-	=105-	=105-	=105-	=105-	=105-
.	.	.	.	.	.	4e\	.	.	.	.	.
.	.	.	.	.	.	4f\	.	.	.	.	.
2BBny/	.	.	2d\	.	.	2.g\	-le-	.	2dd\	.	.
*custos:GG	*	*	*	*	*	*	*	*	*	*	*
1C	.	.	1.c	-le-	.	.	.	.	1ee	.	.
.	.	.	.	.	.	4f\	.	.	.	.	.
*	*	*	*	*	*	*custos:g	*	*	*	*	*
.	.	.	.	.	.	2e\	.	.	.	.	.
!	!	!	!	!	!	!LO:LB:g=original	!	!	!	!	!
=106-	=106-	=106-	=106-	=106-	=106-	=106-	=106-	=106-	=106-	=106-	=106-
1.GG	-le-	.	.	.	.	1.g	.	.	1.dd	-le-	.
.	.	.	4Bny\	.	.	.	.	.	.	.	.
*	*	*	*custos:B	*	*	*	*	*	*	*	*
.	.	.	4A\	.	.	.	.	.	.	.	.
!	!	!	!LO:LB:g=original	!	!	!	!	!	!	!	!
.	.	.	2B\	.	.	.	.	.	.	.	.
2GG/	-lu-	.	2B\	-lu-	.	2g\	-lu-	.	2dd\	-lu-	.
=107-	=107-	=107-	=107-	=107-	=107-	=107-	=107-	=107-	=107-	=107-	=107-
0Cl;	-ia	.	0cl;<	-ia	.	0gl	-ia	.	0eel;<	-ia	.
*	*Xij	*	*	*Xij	*	*	*Xij	*	*	*Xij	*
==	==	==	==	==	==	==	==	==	==	==	==
*-	*-	*-	*-	*-	*-	*-	*-	*-	*-	*-	*-
!!!system-decoration: [g1]
!!!RDF**kern: > = above
!!!RDF**kern: < = below
!!!RDF**kern: l = terminal long
!!!ENC: Andrzej Kubiczek
!!!END: 2021-03-16
!!!ENC: Andrzej Borzym
!!!END: 2021-02-18
!!!YEC: Copyright 2022 Narodowy Instytut Fryderyka Chopina (https://polishscores.org)
!!!YEM: Licence CC BY 4.0 (https://creativecommons.org/licenses/by/4.0)
